X: 1110
T: Amhran Na Tra Bainne
R: barndance
M: 4/4
K: Dmajor
AB/c/ de/f/ ed d2|BA AB/A/ F4|DE F2 F/F/E F/E/D|D4 D2 Dd/B/|
A2 AF/A/ A2 (3ABd|e2 ed f2 fe|d2 de/d/ B2 BA/F/|A4 d3B|
A2 AF/A/ A2 (2ABd|e2 ed f2 fe|d2 de/d/ B2 BA/F/|A4 A4|
AB/c/ de/f/ ed d2|BA AB/A/ F4|DE F2 F/F/E F/E/D|D4 D2 D4|
AB/c/ de/f/ ed d2|BA AB/A/ F4|DE F2 F/F/E F/E/D|D4 ED Dd/B/|
A2 AF/A/ A2 (3ABd|e2 ed f2 fe|d2 de/d/ B2 BA/F/|A4 d3B|
A2 AF/A/ A2 (3ABd|e2 ed f2 fe|d2 de/d/ B2 BA/F/|A4 A4|
AB/c/ de/f/ ed d2|BA AB/A/ F4|DE F2 F/F/E F/E/D|D4 D2 D4||

